!!!!SEGMENT: pl-kk--kk-i-2--011-005_pacelli-asprilio--missa-ave-maris-stella-agnus-dei.krn
!!!cenid: 16xx:1620
!!!COM: Pacelli, Asprilio
!!!COM-rismID: pe30009570
!!!CDT: 1570-1623/05/04
!!!CNT: Italian
!!!OPR: Missa Ave Maris Stella
!!!OTL: Agnus Dei
!!!OMV: 005
!!!PDT:
!!!AGN: Sacred; Mass
!!!SMS-siglum: PL-Kk
!!!SMS-shelfmark: Kk.I.2
!!!SMS-shelfwork: 011-005 M
!!!NIFC-rismSourceID: 300258027
!!!NIFC-islandoraID: pl-kk:750
!!!URL-pdf-islandora: https://repozytorium.nifc.pl/islandora/object/pl-kk%3A750/datastream/PDF/view
!!!URL-scan: https://polish.musicsources.pl/pl/lokalizacje/galeria/rekopisy/5828 @EN{Scan on Polish Music Sources Website} @PL{Skany w portalu Dziedzictwo Muzyki Polskiej w otwartym dostępie}
!!!ONB-nifc: Części mszy: Kyrie, Gloria, Credo, Sanctus, Agnus Dei; skany: C: 0032; A: 0132; T: 0235; B: 0333;
!!!AIN: 1 alto 1 bass 1 soprn 1 tenor
!!!key: d:dor
**kern	**text	**kern	**text	**kern	**text	**kern	**text
*group1	*	*group1	*	*group1	*	*group1	*
*part4	*part4	*part3	*part3	*part2	*part2	*part1	*part1
*staff4	*staff4	*staff3	*staff3	*staff2	*staff2	*staff1	*staff1
*I"BASSVS	*	*I"TENOR	*	*I"ALTVS	*	*I"DISCANTVS	*
*I'[B]	*	*I'[T]	*	*I'[A]	*	*I'[S]	*
*Ibass	*	*Itenor	*	*Ialto	*	*Isoprn	*
*ICvox	*	*ICvox	*	*ICvox	*	*ICvox	*
*clefF4	*	*clefC4	*	*clefC4	*	*clefC3	*
*k[]	*	*k[]	*	*k[]	*	*k[]	*
*d:dor	*	*d:dor	*	*d:dor	*	*d:dor	*
*M2/1	*	*M2/1	*	*M2/1	*	*M2/1	*
*met(C|)	*	*met(C|)	*	*met(C|)	*	*met(C|)	*
=1-	=1-	=1-	=1-	=1-	=1-	=1-	=1-
*2\right	*	*2\right	*	*2\right	*	*2\right	*
*xywh-#333:7654,1548,6192,923	*	*xywh-#235:7766,2338,6350,852	*	*xywh-#132:1720,569,5876,1080	*	*xywh-#32:1371,3044,6211,953	*
!LO:TX:t=P:problem=all\right&colon; global	!	!LO:TX:t=P:problem=all\right&colon; global	!	!LO:TX:t=P:problem=all\right&colon; global	!	!LO:TX:t=P:problem=all\right&colon; global	!
*	*	*	*	*	*	*	*
0r	.	2r	.	1A	A-	2.d\	A-
.	.	1d	A-	.	.	.	.
!	!	!	!	!	!	!LO:TX:t=P:problem=kreska pseudotaktowa	!
.	.	.	.	.	.	4c/	-gnus
.	.	.	.	2G/	-gnus	2B/	De-
!	!	!LO:TX:t=P:problem=kreska pseudotaktowa	!	!LO:TX:t=P:problem=kreska pseudotaktowa	!	!	!
.	.	2c#X\	-gnus	2E/	De-	2A/	-i
=2-	=2-	=2	=2	=2-	=2-	=2-	=2-
!LO:TX:t=P:problem=kreska pseudotaktowa	!	!	!	!	!	!	!
1r	.	2.d\	De-	1F#X	-i.	1d	A-
.	.	4cny\	.	.	.	.	.
!	!	!	!	!LO:TX:t=P:problem=kreska pseudotaktowa	!	!	!
2r	.	4B\	.	1D	A-	2G/	-gnus
.	.	4A/	.	.	.	.	.
!	!	!LO:TX:t=P:problem=kreska pseudotaktowa	!	!	!	!LO:TX:t=P::problem=kreska pseudotaktowa&colon;między nutą a kropką	!
1G\	A-	2B\	.	.	.	2.d\	De-
=3-	=3-	=3	=3	=3-	=3-	=3	=3
*2\right	*	*	*	*lig	*	*	*
.	.	2A/	-i	1A	-gnus	.	.
.	.	.	.	.	.	8c/L	.
.	.	.	.	.	.	8B/J	.
!LO:TX:t=P:problem=kreska pseudotaktowa	!	!	!	!	!	!	!
2F#X\	-gnus	4d\	A-	.	.	2A/	.
.	.	4c\	.	.	.	.	.
2.G\	De-	4B\	.	1B	.	2G/	.
.	.	4A/	.	.	.	.	.
!	!	!	!	!	!	!LO:TX:t=P:problem=kreska pseudotaktowa	!
.	.	1G/	.	.	.	2d\	-i
4Fny\	.	.	.	.	.	.	.
*	*	*	*	*Xlig	*	*	*
=4-	=4-	=4-	=4-	=4-	=4-	=4-	=4-
*	*	*	*	*lig	*	*	*
4E\	.	.	.	1G	De-	1e	A-
4D/	.	.	.	.	.	.	.
!LO:TX:t=P:problem=kreska pseudotaktowa	!	!LO:TX:t=P:problem=kreska pseudotaktowa	!	!	!	!	!
2E\	.	2G/	-gnus	.	.	.	.
*lig	*	*	*	*	*	*	*
!	!	!	!	!LO:TX:t=P:problem=kreska pseudotaktowa	!	!	!
1D	.	2.d\	De-	1A	.	2A/	-gnus
!	!	!	!	!	!	!LO:TX:t=P::problem=kreska pseudotaktowa&colon;między nutą a kropką	!
.	.	.	.	.	.	2.d\	De-
.	.	4c\	.	.	.	.	.
*	*	*	*	*Xlig	*	*	*
=5-	=5-	=5-	=5-	=5-	=5-	=5	=5
*	*	*	*	*lig	*	*	*
1GG	.	4B\	.	1B	.	.	.
.	.	4A/	.	.	.	8c/L	.
.	.	.	.	.	.	8B/J	.
.	.	1G	.	.	.	1g	.
*Xlig	*	*	*	*	*	*	*
2C/	.	.	.	1c	.	.	.
2E\	.	2G/	-i	.	.	2e\	-i
!	!	!LO:TX:t=P:problem=kreska pseudotaktowa	!	!	!	!LO:TX:t=P:problem=kreska pseudotaktowa	!
*	*	*	*	*Xlig	*	*	*
=6-	=6-	=6	=6	=6-	=6-	=6	=6
*lig	*	*	*	*	*	*	*
1D	.	2r	.	0d	.	2g\	A-
.	.	1d	A-	.	.	2f#X\	-gnus
1GG	.	.	.	.	.	2.g\	De-
.	.	2B\	-gnus	.	.	.	.
!	!	!	!	!	!	!LO:TX:t=P:problem=kreska pseudotaktowa	!
.	.	.	.	.	.	4f#\	.
*Xlig	*	*	*	*	*	*	*
=7-	=7-	=7-	=7-	=7-	=7-	=7	=7
!	!	!LO:TX:t=P:problem=kreska pseudotaktowa	!	!	!	!	!
*	*	*	*	*lig	*	*	*
2AA,>/	-i	1A	De-	1c	.	4e\	.
.	.	.	.	.	.	4d\	.
*	*	*	*	*	*	*custos:e	*
!	!	!	!	!	!	!LO:LB:g=original	!
*	*	*	*	*	*	*xywh-#32:1377,3866,6167,1015	*
!	!	!	!	!	!	!LO:TX:t=P:problem=kreska pseudotaktowa	!
1A	A-	.	.	.	.	2e\	-i
!	!	!	!	!LO:TX:t=P:problem=kreska pseudotaktowa	!	!	!
.	.	2E/	.	1B	.	1e	A-
!LO:TX:t=P:problem=kreska pseudotaktowa	!	!	!	!	!	!	!
2G#X\	-gnus	2.e\	.	.	.	.	.
*	*	*	*	*Xlig	*	*	*
=8	=8	=8-	=8-	=8-	=8-	=8-	=8-
2.A\	De-	.	.	2A/	-i.	2c/	-gnus
.	.	4d\	.	.	.	.	.
!	!	!	!	!LO:TX:t=P:problem=kreska pseudotaktowa	!	!	!
.	.	4c\	.	2A/	A-	1e	.
!	!	!LO:TX:t=P:problem=kreska pseudotaktowa	!	!	!	!	!
4Gny\	.	4B\	.	.	.	.	.
*	*	*custos:c	*	*	*	*	*
!	!	!LO:LB:g=original	!	!	!	!	!
*	*	*xywh-#235:7766,3041,6344,880	*	*	*	*	*
4F\	.	2c\	.	2A/	-gnus	.	.
4E\	.	.	.	.	.	.	.
!LO:TX:t=P:problem=kreska pseudotaktowa	!	!	!	!	!	!LO:TX:t=P:problem=kreska pseudotaktowa	!
2F\	.	2A/	.	1A\	De-	2d\	.
=9-	=9-	=9-	=9-	=9-	=9-	=9	=9
1E	.	1B	.	.	.	2e\	De-
!	!	!	!	!LO:TX:t=P:problem=kreska pseudotaktowa	!	!	!
.	.	.	.	2G#X/	.	2e\	-i
2AA/	-i	2A/	-i	1A	-i	1e	q(ui)
!LO:TX:t=P:problem=kreska pseudotaktowa	!	!LO:TX:t=P:problem=kreska pseudotaktowa	!	!	!	!	!
2A\	q(ui)	2e\	q(ui)	.	.	.	.
=10	=10	=10-	=10-	=10-	=10-	=10-	=10-
2.A\	to-	1e	tol-	2A/	qui	2c/	tol-
!	!	!	!	!LO:TX:t=P:problem=kreska pseudotaktowa	!	!LO:TX:t=P:problem=kreska pseudotaktowa	!
.	.	.	.	2.A/	tol-	2A/	-lis
!LO:TX:t=P:problem=kreska pseudotaktowa	!	!	!	!	!	!	!
4G\	.	.	.	.	.	.	.
*custos:F	*	*	*	*	*	*	*
!LO:LB:g=original	!	!	!	!	!	!	!
*xywh-#333:7683,2265,6284,968	*	*	*	*	*	*	*
!	!	!LO:TX:t=P:problem=kreska pseudotaktowa	!	!	!	!	!
4F\	.	0A	-lis	.	.	1c	pec-
4E\	.	.	.	4Gny/	.	.	.
*	*	*	*	*custos:F	*	*	*
!	!	!	!	!LO:LB:g=original	!	!	!
!LO:TX:t=P:problem=kreska pseudotaktowa	!	!	!	!	!	!	!
*	*	*	*	*xywh-#132:1715,1479,6047,897	*	*	*
2F\	.	.	.	4Fny/	.	.	.
!	!	!	!	!LO:TX:t=P:problem=kreska pseudotaktowa	!	!	!
.	.	.	.	4E/	.	.	.
=11-	=11-	=11-	=11-	=11-	=11-	=11-	=11-
!LO:TX:a:t=P:problem=wykreślony fragment	!	!	!	!	!	!	!
2D/	-lis	.	.	2F/	-lis	2d\	-ca-
!LO:TX:t=P:problem=kreska pseudotaktowa	!	!	!	!	!	!LO:TX:t=P:problem=kreska pseudotaktowa	!
2A\	pec-	.	.	2E/	.	2c/	.
2G\	-ca-	1B	pec-	1.G	pec-	2d\	-ta
2E\	-ta	.	.	.	.	2e\	mun-
=12-	=12-	=12-	=12-	=12-	=12-	=12-	=12-
*lig	*	*	*	*	*	*	*
1D	mun-	1.d	-ca-	.	.	2A/	-di
!	!	!	!	!LO:TX:t=P:problem=kreska pseudotaktowa	!	!	!
.	.	.	.	2F/	-ca-	1A	pec-
1AA	.	.	.	2E/	-ta	.	.
.	.	2c\	-ta	1A\	mun-	1e\	-ca-
*Xlig	*	*	*	*	*	*	*
=13-	=13-	=13-	=13-	=13-	=13-	=13-	=13-
!LO:TX:t=P:problem=kreska pseudotaktowa	!	!	!	!	!	!	!
0E	.	0B	mun-	.	.	.	.
!	!	!	!	!	!	!LO:TX:t=P:problem=kreska pseudotaktowa	!
!	!	!	!	!LO:TX:a:t=P:problem=# below	!	!	!
.	.	.	.	4G#X/	.	2B/	-ta
!	!	!	!	!LO:TX:t=P:problem=kreska pseudotaktowa	!	!	!
!	!	!	!	!LO:SIC:v:s:t=4F#/	!	!	!
.	.	.	.	4F/	.	.	.
!	!	!	!	!LO:TX:a:t=P:problem=# below	!	!	!
.	.	.	.	1G#X	.	1.e	mun-
=14	=14	=14-	=14-	=14-	=14-	=14-	=14-
!	!	!LO:TX:t=P:problem=kreska pseudotaktowa	!	!LO:TX:t=P:problem=kreska pseudotaktowa	!	!	!
1AA,>	-di	1A	-di	1A	-di	.	.
.	.	.	.	.	.	2A/	-di
2.AA/	Mi-	2r	.	1r	.	4e\	Mi-
.	.	.	.	.	.	4d\	-ſe-
!	!	!	!	!	!	!LO:TX:t=P:problem=kreska pseudotaktowa	!
.	.	2.E/	Mi-	.	.	2c/	-re-
4BB/	-ſe-	.	.	.	.	.	.
=15-	=15-	=15-	=15-	=15-	=15-	=15	=15
1.C	-re-	.	.	2.E/	Mi-	2c/	-re
.	.	4F/	.	.	.	.	.
!	!	!LO:TX:t=P:problem=kreska pseudotaktowa	!	!	!	!	!
.	.	2G/	.	.	.	2.c/	no-
.	.	.	.	4F/	-ſe-	.	.
.	.	1E	-ſe-	2Gny/	-re-	.	.
.	.	.	.	.	.	4d\	.
!LO:TX:t=P:problem=kreska pseudotaktowa	!	!	!	!LO:TX:t=P:problem=kreska pseudotaktowa	!	!	!
2AA/	-re	.	.	2A/	-re	2.e\	.
=16	=16	=16-	=16-	=16	=16	=16-	=16-
2.FF/	no-	2F/	-re-	2A/	no-	.	.
.	.	.	.	.	.	4d\	.
*	*	*	*	*	*	*custos:d	*
!	!	!	!	!	!	!LO:PB:g=original	!
*	*	*	*	*	*	*xywh-#32:7709,580,6354,1059	*
.	.	2F/	-re	2A/	-bis	1d	.
4GG/	.	.	.	.	.	.	.
1AA	.	1E	no-	1A	Mi-	.	.
.	.	.	.	.	.	2c#X/	.
=17-	=17-	=17-	=17-	=17-	=17-	=17-	=17-
!	!	!LO:TX:t=P:problem=kreska pseudotaktowa	!	!LO:TX:t=P:problem=kreska pseudotaktowa	!	!LO:TX:t=P:problem=kreska pseudotaktowa	!
2D,>/	-bis	1D	-bis	1A	-ſe-	1d	-bis
!LO:TX:t=P::problem=kreska pseudotaktowa&colon;między nutą a kropką	!	!	!	!	!	!	!
2.A\	Mi-	.	.	.	.	.	.
.	.	2r	.	0e	-re-	2r	.
4B\	-ſe-	.	.	.	.	.	.
1c\	-re-	2C/	Mi-	.	.	2.e\	Mi-
=18-	=18-	=18-	=18-	=18-	=18-	=18-	=18-
.	.	2C/	-ſe-	.	.	.	.
.	.	.	.	.	.	4f\	-ſe-
!	!	!LO:TX:t=P::problem=kreska pseudotaktowa&colon;między nutą a kropką	!	!	!	!	!
2C/	-re	2.G/	-re-	.	.	1g	-re-
2.G\	no-	.	.	1d	-re	.	.
.	.	4A/	.	.	.	.	.
!	!	!	!	!	!	!LO:TX:t=P:problem=kreska pseudotaktowa	!
.	.	4B\	.	.	.	2d\	-re
!	!	!LO:TX:t=P:problem=kreska pseudotaktowa	!	!	!	!	!
4F\	.	4A/	.	.	.	.	.
*custos:E	*	*	*	*	*	*	*
!LO:LB:g=original	!	!	!	!	!	!	!
=19-	=19-	=19	=19	=19-	=19-	=19	=19
*xywh-#333:7706,3079,6381,894	*	*	*	*	*	*	*
4E\	.	4G/	.	2.e\	Mi-	2.c/	Mi-
4D/	.	4F/	.	.	.	.	.
2.C/	.	2E/	.	.	.	.	.
!	!	!	!	!LO:TX:t=P:problem=kreska pseudotaktowa	!	!	!
.	.	.	.	4d\	-ſe-	4d\	-ſe-
.	.	2E/	-re.	2.c\	-re-	1e	-re-
4BB/	.	.	.	.	.	.	.
!	!	!LO:TX:t=P:problem=kreska pseudotaktowa	!	!	!	!	!
4AA/	.	2A/	Mi-	.	.	.	.
!LO:TX:t=P:problem=kreska pseudotaktowa	!	!	!	!	!	!	!
4GG/	.	.	.	4B\	.	.	.
*	*	*custos:c	*	*	*	*	*
!	!	!LO:LB:g=original	!	!	!	!	!
=20	=20	=20-	=20-	=20-	=20-	=20-	=20-
*	*	*xywh-#235:7777,3737,5993,978	*	*	*	*	*
!	!	!	!	!	!	!LO:TX:t=P:problem=kreska pseudotaktowa	!
2FF/	.	1c	-ſe-	2A/	.	1A	-re
!	!	!	!	!LO:TX:t=P:problem=kreska pseudotaktowa	!	!	!
2.F\	.	.	.	2c\	-re	.	.
.	.	2F/	-re-	1.d	no-	2.f\	no-
4E\	.	.	.	.	.	.	.
!LO:TX:t=P:problem=kreska pseudotaktowa	!	!	!	!	!	!	!
2D/	.	2A/	-re	.	.	.	.
.	.	.	.	.	.	4d\	.
=21-	=21-	=21-	=21-	=21-	=21-	=21-	=21-
*	*	*	*	*	*	*lig	*
1A	.	1.A	no-	.	.	1e	.
!	!	!	!	!LO:TX:t=P:problem=kreska pseudotaktowa	!	!	!
.	.	.	.	2c#X\	.	.	.
*	*	*	*	*custos:d	*	*	*
!	!	!	!	!LO:LB:g=original	!	!	!
*	*	*	*	*xywh-#132:1703,2205,5976,909	*	*	*
1D,>	-bis	.	.	4d\	-bis	1f	.
.	.	.	.	2A/	Mi-	.	.
!	!	!LO:TX:t=P:problem=kreska pseudotaktowa	!	!	!	!	!
.	.	2D/	-bis	.	.	.	.
.	.	.	.	4B\	-ſe-	.	.
*	*	*	*	*	*	*Xlig	*
=22-	=22-	=22	=22	=22-	=22-	=22-	=22-
!	!	!	!	!LO:TX:t=P:problem=kreska pseudotaktowa	!	!	!
2.AA/	mi-	0E	mi-	1cny	-re	1e	-bis
4BB/	-ſe-	.	.	.	.	.	.
1C	-re	.	.	2G/	.	1c,>	.
.	.	.	.	1c\	no-	.	.
=23-	=23-	=23-	=23-	=23-	=23-	=23-	=23-
!LO:TX:t=P:problem=kreska pseudotaktowa	!	!	!	!	!	!	!
1GG	ſe-	0G	-ſe-	.	.	2d\	Mi-
!	!	!	!	!LO:TX:t=P:problem=kreska pseudotaktowa	!	!LO:TX:t=P:problem=kreska pseudotaktowa	!
.	.	.	.	2B\	.	2g\	-ſe-
0C	-re-	.	.	2c,>\	-bis	1g	-re-
.	.	.	.	2.e\	Mi-	.	.
=24-	=24-	=24-	=24-	=24-	=24-	=24-	=24-
.	.	1E	-re-	.	.	2g,>\	-re
.	.	.	.	4d\	-ſe-	.	.
.	.	.	.	2.c\	-re-	1a	no-
2.F\	-re	0F	-re	.	.	.	.
.	.	.	.	4B\	.	.	.
.	.	.	.	1A\	-re	2f,>\	-bis
4E\	.	.	.	.	.	.	.
=25-	=25-	=25-	=25-	=25-	=25-	=25-	=25-
1D	.	.	.	.	.	2a\	Mi-
.	.	.	.	1d	no-	2.A/	-ſe-
0AA	no-	0E	no-	.	.	.	.
.	.	.	.	.	.	4B/	-re-
!	!	!	!	!	!	!LO:TX:a:t=P:problem=# below	!
.	.	.	.	4c#X\	.	4c#X/	-re
.	.	.	.	4B\	.	4d\	.
=26-	=26-	=26-	=26-	=26-	=26-	=26-	=26-
!	!	!	!	!LO:TX:b:t=repetat 3.	!	!	!
.	.	.	.	1c#X	.	1e	no-
!	!	!	!	!	!	!LO:TX:a:t=P:problem=# below	!
!LO:TX:a:t=Agn(us) 2dum u t Et incarnat(us)\nrepetat 3. sicut 1mum	!	!LO:TX:a:t=repetat 3.	!	!	!	!	!
00D\	-bis.	00D/	-bis.	00d\	-bis.	00f#X\	-bis.
=-	=-	=-	=-	=-	=-	=-	=-
*-	*-	*-	*-	*-	*-	*-	*-
!!!system-decoration: [(g1)]
!!!RDF**kern: l = terminal long
!!!RDF**kern: > = above
!!!RDF**kern: < = below
!!!ENC: Andrzej Gręziak
!!!END: 2022-01-07
!!!EED: Jędrzej Mróz
!!!IIIF: https://repozytorium.nifc.pl/islandora/object/pl-kk%3A750/datastream/IIIF/view
!!!ENC-iiif: Natalia Wrzos
!!!END-iiif: 2022-08-31
!!!YEC: Copyright 2022 Narodowy Instytut Fryderyka Chopina (https://polishscores.org)
!!!YEM: Licence CC BY 4.0 (https://creativecommons.org/licenses/by/4.0)
